!!!!SEGMENT: Ren1002e-Missa_Benedictus_Dominus_Deus-Agnus.krn
!!!id: Ren1002e
!!!AGN: Mass; Agnus
!!!voices: 4
!!!COM: Renaldo
!!!OPR: Missa Benedictus Dominus Deus
!!!OTL: Agnus
**kern	**kern	**kern	**kern
*part4	*part3	*part2	*part1
*staff4	*staff3	*staff2	*staff1
*I"Bassus	*I"Tenor	*I"Altus	*I"Superius
*I'B	*I'T	*I'A	*I'S
*clefF4	*clefGv2	*clefG2	*clefG2
*k[b-]	*k[b-]	*k[b-]	*k[b-]
*F:	*F:	*F:	*F:
*M2/1	*M2/1	*M2/1	*M2/1
*met(C|)	*met(C|)	*met(C|)	*met(C|)
!!section: Agnus
!!!OMD: Agnus
=1	=1	=1	=1
0G	0G	0d	0g
=2	=2	=2	=2
1G	1B-y	1d	1g
1C	1c	1e	1g
=3	=3	=3	=3
0G	1d	2.g	0b-y
.	.	4f	.
.	1B-y	2d	.
.	.	2e	.
=4	=4	=4	=4
1F	1c	1f	1.a
1D	1F	4f	.
.	.	4e	.
.	.	4d	[2b-y
.	.	4c	.
=5	=5	=5	=5
0E	0G	2B-y	4b-]
.	.	.	4a
.	.	1d	4g
.	.	.	4f
.	.	.	1g
.	.	2c#i	.
=6	=6	=6	=6
1D	1A	1d	1f
2r	2r	2r	2r
2D	2A	2d	2f
=7	=7	=7	=7
2D	2A	2d	2f
2D	2A	2d	2f
2G	2B-y	2d	2g
2G	2B-y	2d	2g
=8	=8	=8	=8
2C	2c	2e	1g
2C	2c	2e	.
1D	2A	1d	2.f
.	2d	.	.
.	.	.	4g
=9	=9	=9	=9
0r	2d	0r	2a
.	2B-y	.	2b-y
.	2c	.	2a
.	[2d	.	[2b-y
=10	=10	=10	=10
0r	4d]	0r	4b-]
.	4c	.	4a
.	4B-y	.	1a
.	4A	.	.
.	1B-y	.	.
.	.	.	2g
=11	=11	=11	=11
2r	0A	1c	1a
2F	.	.	.
2F	.	2.A	1r
2D	.	.	.
.	.	4B-y	.
=12	=12	=12	=12
2E	0r	2c	0r
2.F	.	2.d	.
4E	.	4c	.
4D	.	[2c	.
4C	.	.	.
=13	=13	=13	=13
1D	1r	2c]	1r
.	.	2BnXi	.
2C	2r	1c	2r
2F	2c	.	2a
=14	=14	=14	=14
2F	2c	2f	2a
2F	2A	2f	2cc
2G	2B-y	2d	2b-y
2F	[2c	[2f	[2a
=15	=15	=15	=15
1E-X	4c]	4f]	4a]
.	4B-y	4e	4g
.	4A	4d	1g
.	4G	4c	.
1D	1A	1d	.
.	.	.	2f#i
=16	=16	=16	=16
0GG	0G	1.B-y	1g
.	.	.	2r
.	.	2c	[2d
=17	=17	=17	=17
1G	1B-y	2d	4d]
.	.	.	4e
.	.	2e	4f
.	.	.	4g
1F	2c	[1f	2.a
.	[2d	.	.
.	.	.	4g
=18	=18	=18	=18
1D	4d]	1f]	2a
.	4c	.	.
.	4B-y	.	2.b-y
.	4A	.	.
[1E-i	2.G	[1e-X	.
.	.	.	4a
.	.	.	4g
.	4A	.	4f
=19	=19	=19	=19
0E-]	4B-y	0e-_	1g
.	4c	.	.
.	1B-y	.	.
.	.	.	2r
.	4A	.	[2g
.	4G	.	.
=20	=20	=20	=20
1C	2.c	1e-]	2g]
.	.	.	2e-i
.	4B-y	.	.
2D	2A	2d	2f
2E	2G	2c	[2g
=21	=21	=21	=21
1D	1A	1d	2g]
.	.	.	2f#i
[1G	1G	[1d	1g
=22	=22	=22	=22
1G]	1B-y	2d]	0r
.	.	2e	.
[1F	[1c	1f	.
=23	=23	=23	=23
2F]	1c]	2f	0r
4E	.	2F	.
4D	.	.	.
2C	1c	2G	.
2F	.	2A	.
=24	=24	=24	=24
4BB-y	1d	1B-y	0r
4C	.	.	.
4D	.	.	.
4E	.	.	.
2F	2c	2A	.
[2G	[2e-X	[2B-y	.
=25	=25	=25	=25
4G]	4e-]	4B-]	1r
4F	4d	4A	.
2D	1d	1A	.
1E	.	.	2r
.	2c#i	2G	[2g
=26	=26	=26	=26
1D	1d	1A	2g]
.	.	.	2f
1G	2r	2G	2g
.	2d	2g	2b-y
=27	=27	=27	=27
2G	2d	2g	2b-y
2G	2d	2g	2b-y
4C	1e	1g	1cc
4D	.	.	.
4E	.	.	.
4F	.	.	.
=28	=28	=28	=28
2G	2d	2g	2b-y
2A	2.c	2e	2.a
2F	.	4f	.
.	4B-y	4e	4g
2G	4A	4d	[2g
.	4G	4c	.
=29	=29	=29	=29
1D	1A	1d	2g]
.	.	.	2f#i
1GG	[1Gl	1B-y	1g
=30	=30	=30	=30
2r	0G_	2r	2r
2GG	.	2B-y	2d
2GG	.	2B-y	2d
2GG	.	2B-y	2d
=31	=31	=31	=31
1C	0G_	1c	1e
1C	.	1c	1e
=32	=32	=32	=32
00GGl	00G]	00B-yl	00dl
==	==	==	==
*-	*-	*-	*-
!!!system-decoration: [*]
!!!RDF**kern: i = editorial accidental
!!!RDF**kern: l = terminal long
!!!ENC: Benjamin Ory
!!!END: 2024/12/31
!!!EED: Benjamin Ory
!!!EEV: 2025/02/23
!!!YEC: Copyright 2025 Benjamin Ory, All Rights Reserved
!!!ONB: Translated from MusicXML on 2025/02/23